svgs/thin/toilet.svg

<svg xmlns="http://www.w3.org/2000/svg" viewBox="0 0 448 512"><!--! Font Awesome Pro 6.3.0 by @fontawesome - https://fontawesome.com License - https://fontawesome.com/license (Commercial License) Copyright 2023 Fonticons, Inc. --><path d="M8 16h432C444.4 16 448 12.42 448 8S444.4 0 440 0H8C3.578 0 0 3.578 0 8S3.578 16 8 16zM415.4 209.4C415.5 208.9 416 208.5 416 208V56c0-4.422-3.578-8-8-8S400 51.58 400 56v146.4C356.3 185.1 289 176 224 176S91.67 185.1 48 202.4V56c0-4.422-3.578-8-8-8S32 51.58 32 56V208c0 .5352 .4668 .8633 .5664 1.369C12.35 219.9 0 232.8 0 248c0 54.34 24.47 103.6 64 139.7V472C64 494.1 81.94 512 104 512h240c22.06 0 40-17.94 40-40v-84.3C423.5 351.6 448 302.3 448 248C448 232.8 435.6 219.9 415.4 209.4zM368 472c0 13.23-10.77 24-24 24h-240c-13.23 0-24-10.77-24-24v-71.02C118.1 430.3 169.2 448 224 448s105-17.73 144-47.02V472zM370.1 378.1c-.2676 .2266-.5234 .3516-.7598 .6113C332.6 411.6 280.9 432 224 432s-108.6-20.39-146.2-53.3c-.2363-.2598-.4922-.3848-.7598-.6113C47.07 351.6 26.4 317 19.1 278.5C56.27 305.6 142 320 224 320s167.7-14.39 204.9-41.55C421.6 317 400.9 351.6 370.1 378.1zM224 304c-122.6 0-208-29.52-208-56S101.4 192 224 192s208 29.52 208 56S346.6 304 224 304zM104 80C99.58 80 96 83.58 96 88S99.58 96 104 96h48C156.4 96 160 92.42 160 88S156.4 80 152 80H104z"/></svg>

<svg xmlns="http://www.w3.org/2000/svg" viewBox="0 0 448 512"><!-- Font Awesome Pro 6.0.0-alpha2 by @fontawesome - https://fontawesome.com License - https://fontawesome.com/license (Commercial License) --><path d="M8 16H440C444.422 16 448 12.422 448 8S444.422 0 440 0H8C3.578 0 0 3.578 0 8S3.578 16 8 16ZM415.434 209.369C415.533 208.863 416 208.535 416 208V56C416 51.578 412.422 48 408 48S400 51.578 400 56V202.424C356.33 185.117 289.037 176 224 176S91.67 185.117 48 202.424V56C48 51.578 44.422 48 40 48S32 51.578 32 56V208C32 208.535 32.467 208.863 32.566 209.369C12.352 219.898 0 232.789 0 248C0 302.34 24.473 351.621 64 387.703V472C64 494.062 81.938 512 104 512H344C366.062 512 384 494.062 384 472V387.703C423.527 351.621 448 302.34 448 248C448 232.789 435.648 219.898 415.434 209.369ZM368 472C368 485.234 357.234 496 344 496H104C90.766 496 80 485.234 80 472V400.979C118.973 430.271 169.188 448 224 448S329.027 430.271 368 400.979V472ZM370.953 378.088C370.686 378.314 370.43 378.439 370.193 378.699C332.594 411.613 280.949 432 224 432S115.406 411.613 77.807 378.699C77.57 378.439 77.314 378.314 77.047 378.088C47.072 351.59 26.402 317 19.096 278.451C56.273 305.607 142.041 320 224 320S391.727 305.607 428.904 278.451C421.598 317 400.928 351.59 370.953 378.088ZM224 304C101.422 304 16 274.484 16 248S101.422 192 224 192S432 221.516 432 248S346.578 304 224 304ZM104 80C99.578 80 96 83.578 96 88S99.578 96 104 96H152C156.422 96 160 92.422 160 88S156.422 80 152 80H104Z"/></svg>
